X:144350
H:
T:Farewell to Pipe Major Angus MacDonald MBE
C:Angus G MacAllister
B: Scots Guards I
O:Kevin Fraser
Z:Kevin Fraser
Q:1/4=90
K:HP
M:4/4
L:1/8
R:March
U: R = ///
U: r = //
U: V = !accent!
V:M gstem=up stem=down name="Melody"
V:H gstem=up stem=down name="Harmony"
V:C gstem=up stem=down name="C-Harmony"
V:S gstem=up stem=down dyn=up stafflines=1 clef=perc middle=G name="Snare" sname="Snare"" sname="Snare"
V:B gstem=up stem=down clef=none dyn=up name="Bass"
V:T gstem=up stem=down clef=none dyn=up name="Tenor"
I:MIDI=program 110
I:linebreak $
% %score {M H}
%%MIDI program 109 #bagpipes
%%MIDI vol 100
%%landscape
[V:M][|  {g}f>g {gfg}fe {Gdc}d2 {e}A2 | {G}B<d {gcd}cB {g}A4 | {g}f>g {gfg}fe {Gdc}d<{e}A {g}d<f | {ag}a>f {Gdc}d<{e}A {gef}e4 | $
[V:M]  {g}f>g {gfg}fe {Gdc}d2 {e}A2 | {G}B<d {gcd}cB {g}A4 | {g}B<d {gcd}cB {g}A2 {Gdc}d2 | {gcd}c<{e}A {g}f>e {Gdc}d4 |] 
[V:M][|  {g}f>g {gfg}fe {g}f2 {ag}a2 | {G}B<d {g}G{d}B {Gdc}d2}{g}A2 | {g}f>g {gfg}fe {Gdc}d<{e}A {g}d<f | {ag}a>f {Gdc}d<{e}A {gef}e4 | $
[V:M]    {g}f>g {gfg}fe {g}f2 {ag}a2 | {G}B<d {g}G{d}B {Gdc}d2}{g}A2 | {g}B<d {gcd}cB {g}A2 {Gdc}d2 | {gcd}c<{e}A {g}f>e {Gdc}d4 |] 
